packages/icons/raw/imported/ChatCommentBubbleQuestionMark.svg

<svg width="32" height="32" viewBox="0 0 32 32" fill="none" xmlns="http://www.w3.org/2000/svg">
<path d="M25.5 15.952H26H25.5ZM25.4696 25.4342L25.4744 25.9342C25.6368 25.9326 25.7882 25.8523 25.8806 25.7189C25.9731 25.5854 25.9949 25.4153 25.9393 25.2628L25.4696 25.4342ZM23.9167 21.1786L23.5009 20.9008C23.4124 21.0333 23.3923 21.2002 23.447 21.35L23.9167 21.1786ZM16.5 20.2222C16.5 19.9461 16.2761 19.7222 16 19.7222C15.7239 19.7222 15.5 19.9461 15.5 20.2222H16.5ZM15.5 20.9003C15.5 21.1764 15.7239 21.4003 16 21.4003C16.2761 21.4003 16.5 21.1764 16.5 20.9003H15.5ZM12.3333 13.8889C12.3333 14.165 12.5572 14.3889 12.8333 14.3889C13.1095 14.3889 13.3333 14.165 13.3333 13.8889H12.3333ZM16 17.8472L15.6257 17.5157C15.5447 17.6071 15.5 17.7251 15.5 17.8472H16ZM15.5 18.1111C15.5 18.3873 15.7239 18.6111 16 18.6111C16.2761 18.6111 16.5 18.3873 16.5 18.1111H15.5ZM26 15.952C26 10.4533 21.5205 6 16 6V7C20.973 7 25 11.0103 25 15.952H26ZM16 6C10.4795 6 6 10.4533 6 15.952H7C7 11.0103 11.027 7 16 7V6ZM6 15.952C6 21.442 10.4405 26 15.9696 26V25C11.0053 25 7 20.9023 7 15.952H6ZM24.3324 21.4564C25.386 19.8798 26 17.9866 26 15.952H25C25 17.7824 24.4482 19.4833 23.5009 20.9008L24.3324 21.4564ZM25.9393 25.2628L24.3864 21.0072L23.447 21.35L24.9999 25.6056L25.9393 25.2628ZM15.9696 26C19.1461 26 22.2923 25.9652 25.4744 25.9342L25.4647 24.9343C22.2804 24.9652 19.14 25 15.9696 25V26ZM15.5 20.2222V20.9003H16.5V20.2222H15.5ZM13.3333 13.8889C13.3333 12.4161 14.5272 11.2222 16 11.2222V10.2222C13.975 10.2222 12.3333 11.8638 12.3333 13.8889H13.3333ZM16 11.2222C17.4728 11.2222 18.6667 12.4161 18.6667 13.8889H19.6667C19.6667 11.8638 18.025 10.2222 16 10.2222V11.2222ZM15.5 17.8472V18.1111H16.5V17.8472H15.5ZM18.6667 13.8889C18.6667 14.5014 18.2667 15.0811 17.612 15.7096C17.2921 16.0167 16.9431 16.3068 16.5918 16.607C16.2497 16.8993 15.9017 17.2041 15.6257 17.5157L16.3743 18.1788C16.5982 17.9259 16.896 17.6623 17.2414 17.3673C17.5776 17.08 17.9577 16.7639 18.3045 16.431C18.9832 15.7794 19.6667 14.9444 19.6667 13.8889H18.6667Z" fill="black"/>
</svg>

<svg width="32" height="32" fill="none" xmlns="http://www.w3.org/2000/svg"><path d="M25.5 15.952h.5-.5Zm-.03 9.482.004.5a.5.5 0 0 0 .465-.671l-.47.171Zm-1.553-4.255L23.5 20.9a.5.5 0 0 0-.054.449l.47-.171Zm-7.417-.957a.5.5 0 0 0-1 0h1Zm-1 .678a.5.5 0 0 0 1 0h-1Zm-3.167-7.011a.5.5 0 0 0 1 0h-1ZM16 17.847l-.374-.331a.5.5 0 0 0-.126.331h.5Zm-.5.264a.5.5 0 1 0 1 0h-1ZM26 15.952C26 10.453 21.52 6 16 6v1c4.973 0 9 4.01 9 8.952h1ZM16 6c-5.52 0-10 4.453-10 9.952h1C7 11.01 11.027 7 16 7V6ZM6 15.952C6 21.442 10.44 26 15.97 26v-1C11.005 25 7 20.902 7 15.952H6Zm18.332 5.504A9.874 9.874 0 0 0 26 15.952h-1c0 1.83-.552 3.531-1.5 4.949l.832.555Zm1.607 3.807-1.553-4.256-.939.343L25 25.606l.94-.343ZM15.97 26c3.177 0 6.323-.035 9.505-.066l-.01-1c-3.184.031-6.324.066-9.494.066v1Zm-.469-5.778v.678h1v-.678h-1Zm-2.167-6.333A2.667 2.667 0 0 1 16 11.222v-1a3.667 3.667 0 0 0-3.667 3.667h1ZM16 11.222a2.667 2.667 0 0 1 2.667 2.667h1A3.667 3.667 0 0 0 16 10.222v1Zm-.5 6.625v.264h1v-.264h-1Zm3.167-3.958c0 .612-.4 1.192-1.055 1.82-.32.308-.669.598-1.02.898-.342.292-.69.597-.966.909l.748.663c.224-.253.522-.517.867-.812.337-.287.717-.603 1.064-.936.678-.652 1.362-1.487 1.362-2.542h-1Z" fill="#000"/></svg>
